X: 7527
T:Offerdals variant
C:e. Bengt Bixo
O:Sweden
A:J\"amtland
R:Polska
B:Svenska L\aa{}tar J\&H1 \#28
M:3/4
K:G
vd>b b>g a>f| (3g(ab) (3b.(ag) (3a(bc')| {b}d'2 b(g a)f| (3g(ab) (3b(ag) gd|\
d>b b>g a>f| (3g.(ab) (3b.(ag) (3a(bc')| {b}d'2 b(g a)f| {f}g2 G4 ::\
d(e/d/) (3czd (3Bzd| (3f(ed) (3c(de) d>B| \
d(e/d/) (3czd (3Bzd| (3f(ed) (3c(de) d2|\
(3dze (3czd (3Bzd| (3f(ed) (3c(de) d>a-| ab gb (3a(fa)| {f}g2 G4:|
